!!!!SEGMENT: pl-wnifc--6670-n--001-015_gall-jan-karol--piesni-polskie-na-chor-meski-z-i-3-pasterze-drzemali-w-dolinie.krn
!!!cenid: 19xx:183
!!!COM: Gall, Jan Karol
!!!COM-rismID: pe50042628
!!!CDT: 1856-1912
!!!CNT: Polish
!!!GTL: Pieśni polskie na chór męski (z. I)
!!!OTL: 3. Pasterze drzemali w dolinie
!!!OMV: 015
!!!PDT:
!!!AGN:
!!!YEC: Copyright 2022 Narodowy Instytut Fryderyka Chopina (https://polishscores.org)
!!!YEM: License CC-BY-4.0 (https://creativecommons.org/licenses/by/4.0)
!!!SMS-siglum: PL-Wnifc
!!!SMS-shelfmark: 6670/n
!!!SMS-variant:
!!!SMS-altvar:
!!!SMS-shelfwork: 001-015 G
!!!NIFC-rismSourceID: 1001152877
!!!NIFC-rismChildID: 1001152903
!!!NIFC-islandoraID: nifc:213182
!!!URL-pdf-islandora: https://repozytorium.nifc.pl/islandora/object/nifc:213182/datastream/PDF/view
!!!URL-scan: https://polish.musicsources.pl/pl/lokalizacje/galeria/druki-muzyczne/16895/9 @EN{Scan on Polish Music Sources Website} @PL{Skany w portalu Dziedzictwo Muzyki Polskiej w otwartym dostępie}
!!!IIIF:
!!!ONB-nifc:
!!!AIN: 1 bass 1 tenor
!!!key: A
**kern	**dynam	**kern	**text	**dynam
*part2	*part2	*part1	*part1	*part1
*staff2	*	*staff1	*staff1	*
*ICvox	*	*ICvox	*	*
*Ibass	*	*Itenor	*	*
*I"Basy.	*	*I"Tenory.	*	*
*I'	*	*I'	*	*
*clefF4	*	*clefG2	*	*
*	*	*ITrd8c12	*	*
*k[f#c#g#]	*	*k[f#c#g#]	*	*
*A:	*	*A:	*	*
*M3/4	*	*M3/4	*	*
*>[A,A]	*>[A,A]	*>[A,A]	*>[A,A]	*>[A,A]
=1	=1	=1	=1	=1
*>A	*>A	*>A	*>A	*>A
*	*	*	*^	*
*^	*	*^	*	*	*
!!LO:TX:A:B:t=Allegretto.
!	!	!LO:DY:b:rj	!LO:TX:t=P:problem:partia zapisana bez przenośnika oktawowego	!	!	!	!LO:DY:a:rj
8C#/	8AA\	p	8A/	8A\	Pa-	A	p
8BB/	8AA\	.	8G#/	8G#\	-ste-	więc	.
8C#/	8AA\	.	8A/	8A\	-rze	wszy-	.
8D/	8AA\	.	8B/	8A\	drze-	-scy	.
8E/	8AA\	.	8c#/	8A\	-ma-	ra-	.
8E/	8BB\	.	8d/	8A\	-li	-zem	.
=2	=2	=2	=2	=2	=2	=2	=2
4E/	4C#\	.	4e/	4A\	w do-	co	.
4E/	4BB\	.	4d/	4A\	-li-	ży-	.
4E/	4AA\	.	4c#/	4A\	-nie	-wo	.
=3	=3	=3	=3	=3	=3	=3	=3
8F#/	8AA\	.	8d/	8A\	pa-	pa-	.
8E/	8AA\	.	8c#/	8A\	-są-	-ste-	.
8D/	8AA\	.	8B/	8A\	-cy	-rze	.
8D#X/	8AA\	.	8f#/	8A\	by-	lęk-	.
8E/	8AA\	.	8e/	8G#\	-deł-	-li-	.
16F#/LL	8AA\	.	8dn/	16A\LL	-ko	-wi	.
16G#/JJ	.	.	.	16B\JJ	.	.	.
!!LO:LB:g=original
=4	=4	=4	=4	=4	=4	=4	=4
!	!	!	!	!	!	!	!LO:HP:a
8A/	8AA\	<	8c#/	8c#\	o-	do	<
8E/	8C#\	[	8e/	8A\	-wce	szo-	[
8E/	8C#\	.	8e/	8A\	i	-py	.
!	!	!	!	!	!	!	!LO:HP:a
8F#/	8BB\	>	8d/	8A\	ba-	bie-	>
8E/	8E\	.	8c#/	8G#\	-ra-	-że-	.
8D/	8E\	]	8B/	8G#\	-ny,	-li	]
=5	=5	=5	=5	=5	=5	=5	=5
8C#/	8AA\	.	8A/	8A\	a-	a-	.
8BB/	8AA\	.	8G#/	8G#\	-leć	-by	.
8C#/	8AA\	.	8A/	8A\	o	o-	.
8D/	8AA\	.	8B/	8A\	pół-	-ba-	.
8E/	8AA\	.	8c#/	8A\	-noc-	-czy-	.
8E/	8BB\	.	8d/	8A\	-nej	-li	.
=6	=6	=6	=6	=6	=6	=6	=6
4E/	4C#\	.	4e/	4A\	go-	to	.
4E/	4BB\	.	4d/	4A\	-dzi-	dzi-	.
4E/	4AA\	.	4c#/	4A\	-nie	-wo	.
=7	=7	=7	=7	=7	=7	=7	=7
8F#/	8AA\	.	8d/	8A\	a-	któ-	.
8E/	8AA\	.	8c#/	8A\	-nioł	-re	.
8D/	8AA\	.	8B/	8A\	jas-	gło-	.
8D#X/	8AA\	.	8f#/	8A\	-no-	-si-	.
8.E/	8.AA\	.	8.e/	8.G#\	-ścią	-li	.
16Dn/	16AA\	.	16G#/	16E\	o-	a-	.
!!LO:LB:g=original
=8	=8	=8	=8	=8	=8	=8	=8
4D/	4AA\	.	4B/	4G#\	-dzia-	-nie-	.
4C#/	4AA\	.	4A/	4A\	-ny	-li	.
4r	4ryy	.	4r	4ryy	.	.	.
=9	=9	=9	=9	=9	=9	=9	=9
!	!	!LO:DY:a:rj	!	!	!	!	!LO:DY:a:rj
4A/	2.rGG	p	4a/	4c#\	Wprzy-	Przy-	p
4A/	.	.	4a/	4c#\	-jem-	-cho-	.
4G#/	.	.	4e/	4B\	-nym	-dzą	.
=10	=10	=10	=10	=10	=10	=10	=10
4F#/	2.rGG	.	4a/	4A\	roz-	wo-	.
!	!	!LO:HP:a	!	!	!	!	!LO:HP:a
4G#/	.	<	8e/L	4B\	-gło-	-bo-	<
.	.	[	8d/J	.	.	.	[
4A/	.	.	4c#/	4c#\	-sie	-rze	.
=11	=11	=11	=11	=11	=11	=11	=11
8F#/	2.rGG	.	8d/	8A\	mil-	Pan-	.
8E/	.	.	8c#/	8A\	-szą	-na	.
8D/	.	.	8B/	8A\	no-	sta-	.
8D#X/	.	.	8f#/	8A\	-wi-	-ru-	.
8E/	.	.	8e/	8G#\	-nę	-szek	.
8F#/	.	.	8dn/	8A\	nad	i	.
=12	=12	=12	=12	=12	=12	=12	=12
!	!	!LO:HP:a	!	!	!	!	!LO:HP:a
4G#X/	2.rGG	>	4d/	4B\	ży-	dzie-	>
4A/	.	]	4c#/	4c#\	-cie	-cie	]
4r	.	.	4r	4ryy	.	.	.
!!LO:LB:g=original
=13	=13	=13	=13	=13	=13	=13	=13
!	!	!LO:DY:b:rj	!	!	!	!	!LO:DY:a:rj
4A/	4AA\	f	4a/	4c#\	o-	ta-	f
4A/	4AA\	.	4a/	4c#\	-znaj-	-kież	.
4G#/	4AA\	.	4e/	4B\	-mił	to	.
=14	=14	=14	=14	=14	=14	=14	=14
8F#/	8AA\	.	8a/	8A\	że	krzy-	.
8E/	8AA\	.	8g#/	8A\	dziś	-kną	.
8D/	8AA\	.	8f#/	8A\	zro-	wiel-	.
8C#/	8AA\	.	8e/	8A\	-dzi-	-ki	.
8F#/	8AA\	.	8d/	8A\	-ło	Bo-	.
8E/	8AA\	.	8c#/	8A\	się	-że	.
=15	=15	=15	=15	=15	=15	=15	=15
8D/	8AA\	.	8B/	8A\	Bos-	u-	.
8E/	8AA\	.	8c#/	8A\	-kie	-bo-	.
8BB/	8AA\	.	8d/	8A\	w Be-	-gie	.
8C#/	8AA\	.	8e/	8A\	-tle-	two-	.
8.D/	8.AA\	.	8.f#/	8.G#X\	-e-	-je	.
16D/	16AA\	.	16G#X/	16E\	-mie	po-	.
=16	=16	=16	=16	=16	=16	=16	=16
4D/	4AA\	.	4B/	4G#X\	dzie-	-wi-	.
4C#/	4AA\	.	4A/	4A\	-cie.	-cie!	.
4r	4ryy	.	4r	4ryy	.	.	.
*v	*v	*	*	*	*	*	*
*	*	*v	*v	*	*	*
*	*	*	*v	*v	*
=:|!	=:|!	=:|!	=:|!	=:|!
*-	*-	*-	*-	*-
!!!system-decoration: [(s1,s2)]
!!!RDF**kern: > = above
!!!RDF**kern: < = below
!!!RDF**kern: N = linked
!!!ENC: Andrzej Gręziak
!!!EED: Katarzyna Serwa
!!!END: 2024-05-02
!!!EEV: 2025-03-07
